Sources/FrostedUI/Resources/Icons.xcassets/tShirt12.imageset/t-shirt-12.svg

<svg width="12" height="12" viewBox="0 0 12 12" fill="none" xmlns="http://www.w3.org/2000/svg" data-fui-icon="true">
  <g clip-path="url(#clip0_882_823)">
    <path
      d="M7.23962 0.844727C7.44843 0.728664 7.70028 0.718627 7.91736 0.818359L11.3607 2.40137C11.9246 2.66097 12.162 3.33597 11.8851 3.8916L11.097 5.4707C10.883 5.8997 10.4205 6.13331 9.95837 6.06738V9.875C9.95837 10.4961 9.45438 10.9996 8.83337 11H3.16736C2.5462 10.9998 2.04236 10.4962 2.04236 9.875V6.06738C1.58012 6.13346 1.11784 5.89972 0.903687 5.4707L0.115601 3.8916C-0.161453 3.33585 0.0758582 2.66091 0.640015 2.40137L4.08337 0.818359C4.30048 0.718721 4.55235 0.728578 4.76111 0.844727C4.96708 0.959428 5.10684 1.16428 5.13904 1.39746C5.13917 1.39836 5.13926 1.40118 5.14001 1.40527C5.14042 1.40746 5.14137 1.41005 5.14197 1.41309C5.14561 1.43138 5.15357 1.46302 5.16541 1.50293C5.18993 1.58551 5.23011 1.69036 5.29333 1.78906C5.40212 1.95882 5.58323 2.13672 6.00037 2.13672C6.41738 2.13663 6.59865 1.95882 6.7074 1.78906C6.77058 1.69038 6.81082 1.58547 6.83533 1.50293C6.84716 1.46304 6.85513 1.43136 6.85876 1.41309C6.85937 1.41007 6.86032 1.40745 6.86072 1.40527V1.4043L6.85974 1.40527L6.86169 1.39746C6.89392 1.16422 7.03354 0.959392 7.23962 0.844727ZM7.97009 2.59766C7.6346 3.12135 7.01337 3.63661 6.00037 3.63672C4.98726 3.63672 4.36618 3.12136 4.03064 2.59766C4.01323 2.57047 3.99765 2.5426 3.98181 2.51562L1.64099 3.5918L2.09412 4.49805L2.57263 4.35156C2.79991 4.282 3.04749 4.32359 3.23865 4.46484C3.42979 4.60627 3.54235 4.83058 3.54236 5.06836V9.5H8.45837V5.06836C8.45838 4.8305 8.57082 4.60626 8.76208 4.46484C8.9533 4.32366 9.20083 4.28189 9.4281 4.35156L9.90564 4.49805L10.3588 3.5918L8.01794 2.51562C8.00219 2.54244 7.98739 2.57062 7.97009 2.59766Z"
      fill="currentColor"
    />
  </g>
  <defs>
    <clipPath id="clip0_882_823"><path fill="currentColor" d="M0 0H12V12H0z" /></clipPath>
  </defs>
</svg>

<svg xmlns="http://www.w3.org/2000/svg" width="12" height="12" fill="none" data-fui-icon="true" viewBox="0 0 12 12"><g clip-path="url(#a)"><path fill="currentColor" d="M7.24.845a.75.75 0 0 1 .677-.027l3.444 1.583a1.1 1.1 0 0 1 .524 1.49l-.788 1.58a1.1 1.1 0 0 1-1.139.596v3.808c0 .621-.504 1.125-1.125 1.125H3.167a1.125 1.125 0 0 1-1.125-1.125V6.067a1.1 1.1 0 0 1-1.138-.596L.116 3.89a1.1 1.1 0 0 1 .524-1.49L4.083.818a.75.75 0 0 1 1.056.58l.001.007.002.008.023.09c.025.083.065.187.128.286.11.17.29.348.707.348s.599-.178.707-.348a1.1 1.1 0 0 0 .152-.376l.002-.008H6.86l.002-.008A.75.75 0 0 1 7.24.845m.73 1.753C7.635 3.12 7.013 3.637 6 3.637s-1.634-.516-1.97-1.04l-.048-.081L1.64 3.592l.453.906.479-.146a.75.75 0 0 1 .97.716V9.5h4.915V5.068a.75.75 0 0 1 .97-.716l.478.146.453-.906-2.341-1.076q-.022.04-.048.082"/></g><defs><clipPath id="a"><path fill="currentColor" d="M0 0h12v12H0z"/></clipPath></defs></svg>
